source/icons/tw.svg

<svg width="31" height="31" viewBox="0 0 31 31" fill="none" xmlns="http://www.w3.org/2000/svg">
<path d="M15.875 0.875C7.59152 0.875 0.875 7.59152 0.875 15.875C0.875 24.1585 7.59152 30.875 15.875 30.875C24.1585 30.875 30.875 24.1585 30.875 15.875C30.875 7.59152 24.1585 0.875 15.875 0.875ZM23.0837 12.1819C23.0937 12.3393 23.0937 12.5033 23.0937 12.6641C23.0937 17.5792 19.3504 23.2411 12.51 23.2411C10.4007 23.2411 8.44531 22.6283 6.79799 21.5737C7.09933 21.6071 7.38728 21.6205 7.69531 21.6205C9.43638 21.6205 11.0368 21.0312 12.3125 20.0335C10.6786 20 9.3058 18.9286 8.83705 17.4554C9.4096 17.5391 9.92522 17.5391 10.5145 17.3884C9.67319 17.2175 8.91699 16.7605 8.37438 16.0953C7.83178 15.43 7.53623 14.5973 7.53795 13.7388V13.692C8.03013 13.9699 8.60938 14.1406 9.2154 14.1641C8.70595 13.8245 8.28814 13.3645 7.99903 12.8249C7.70993 12.2852 7.55845 11.6825 7.55804 11.0703C7.55804 10.3772 7.73884 9.74442 8.06362 9.19531C8.99744 10.3449 10.1627 11.2851 11.4837 11.9548C12.8047 12.6245 14.2518 13.0088 15.731 13.0826C15.2054 10.5547 17.0938 8.50893 19.3638 8.50893C20.4353 8.50893 21.3996 8.95759 22.0792 9.6808C22.9196 9.52344 23.7232 9.2087 24.4397 8.78683C24.1618 9.64732 23.5792 10.3739 22.8058 10.8326C23.5558 10.7522 24.279 10.5446 24.9487 10.2533C24.4431 10.9967 23.8103 11.6562 23.0837 12.1819Z" fill="#666666"/>
</svg>

<svg viewBox="0 0 31 31" fill="none" xmlns="http://www.w3.org/2000/svg"><path d="M15.88.88a15 15 0 1 0 0 30 15 15 0 0 0 0-30Zm7.2 11.3.01.48c0 4.92-3.74 10.58-10.58 10.58-2.1 0-4.06-.61-5.71-1.67a7.46 7.46 0 0 0 5.51-1.54c-1.63-.03-3-1.1-3.47-2.57a4.1 4.1 0 0 0 1.67-.07 3.72 3.72 0 0 1-2.97-3.65v-.05c.49.28 1.07.45 1.68.47a3.72 3.72 0 0 1-1.16-4.96 10.56 10.56 0 0 0 7.67 3.88 3.73 3.73 0 0 1 6.35-3.4 7.35 7.35 0 0 0 2.36-.9 3.7 3.7 0 0 1-1.63 2.05 7.36 7.36 0 0 0 2.14-.58 7.8 7.8 0 0 1-1.87 1.93Z" fill="currentColor"/></svg>
